!!!COA:	Josquin des Prez
!!!CDT:	~1450-1521/08/27
!!!COM: Senfl
!!!OTL@@LAT:	De profundis clamavi
!!!OTL2@@LAT:	A custodia
!!!AGN:	Motet
!!!SCT:	NJE 15.14
!!!SCA:	New Josquin Edition 15.14
!!!voices:	5
**kern	**kern	**kern	**kern	**kern
*staff5	*staff4	*staff3	*staff2	*staff1
*Ivox	*Ivox	*Ivox	*Ivox	*Ivox
*I"Bassus	*I"Tenor	*I"Contratenor	*I"Discantus2	*I"Discantus1
*I'B	*I'T	*I'Ct	*I'D2	*I'D1
*>[A,B]	*>[A,B]	*>[A,B]	*>[A,B]	*>[A,B]
*>Part1[A]	*>Part1[A]	*>Part1[A]	*>Part1[A]	*>Part1[A]
*>Part2[B]	*>Part2[B]	*>Part2[B]	*>Part2[B]	*>Part2[B]
*clefF4	*clefGv2	*clefGv2	*clefG2	*clefG2
*>A	*>A	*>A	*>A	*>A
*k[b-]	*k[b-]	*k[b-]	*k[b-]	*k[b-]
*M2/1	*M2/1	*M2/1	*M2/1	*M2/1
*met(C|)	*met(C|)	*met(C|)	*met(C|)	*met(C|)
=1-	=1-	=1-	=1-	=1-
1r	1.F	0r	0r	0r
[1F	.	.	.	.
.	2G/	.	.	.
=2	=2	=2	=2	=2
2F\]	2A/	0r	0r	0r
2G\	2B-\	.	.	.
2A\	2c\	.	.	.
2B-\	2d\	.	.	.
=3	=3	=3	=3	=3
2c\	2e\	0r	0r	0r
2A\	1f	.	.	.
1G	.	.	.	.
.	2e\	.	.	.
=4	=4	=4	=4	=4
1F	1f	1.F	0r	0r
1D	[1F	.	.	.
.	.	2G/	.	.
=5	=5	=5	=5	=5
0F	2F/]	2A/	0r	0r
.	2G/	2B-\	.	.
.	2A/	2c\	.	.
.	2B-\	2d\	.	.
=6	=6	=6	=6	=6
0C	2c\	2e\	0r	0r
.	2A/	1f	.	.
.	1G	.	.	.
.	.	2e\	.	.
=7	=7	=7	=7	=7
1r	0F	4f\	1r	1.f
.	.	4e\	.	.
.	.	4d\	.	.
.	.	4c\	.	.
1D	.	1d	[1f	.
.	.	.	.	2g/
=8	=8	=8	=8	=8
0F	0r	0c	2f/]	2a/
.	.	.	2g/	2b-\
.	.	.	2a/	2cc\
.	.	.	2b-\	2dd\
=9	=9	=9	=9	=9
1C	1c	1r	2cc\	2ee\
.	.	.	2a/	1ff
2r	1c	2r	1g	.
2C/	.	2c\	.	2ee\
=10	=10	=10	=10	=10
1D	1F	2A/	1f	0ff
.	.	2d\	.	.
2.BB-/	2r	2r	1b-	.
.	2F/	[2d\	.	.
4C/	.	.	.	.
=11	=11	=11	=11	=11
4D\	2.F/	2d\]	0a	1r
4C/	.	.	.	.
4D\	.	2d\	.	.
4E\	4G/	.	.	.
1F	4A/	2.c\	.	1ff
.	4G/	.	.	.
.	4A/	.	.	.
.	4B-\	4d\	.	.
=12	=12	=12	=12	=12
1C	0c	4e\	0g	0ee
.	.	4d\	.	.
.	.	4e\	.	.
.	.	4f\	.	.
2r	.	2g\	.	.
2C/	.	2e\	.	.
=13	=13	=13	=13	=13
1D	[0F	2.f\	1r	0dd
.	.	4e\	.	.
[1BB-	.	4d\	[1b-	.
.	.	4c\	.	.
.	.	[2d\	.	.
=14	=14	=14	=14	=14
1BB-]	0F]	2d\]	1b-]	1r
.	.	4c\	.	.
.	.	4B-\	.	.
1r	.	2c\	1a	[1ff
.	.	2c\	.	.
=15	=15	=15	=15	=15
1r	1B-	1d	2.b-\	1ff]
.	.	.	4a/	.
1C	1c	1r	4g/	1ee
.	.	.	4f/	.
.	.	.	2g/	.
=16	=16	=16	=16	=16
1D	2A/	2r	2f/	2.ff\
.	1d	2f\	2a/	.
.	.	.	.	4ee\
1G	.	1g	2b-\	4dd\
.	.	.	.	4cc\
.	2B-\	.	2b-\	[2dd\
=17	=17	=17	=17	=17
1A	1c	2e\	1a	4dd\]
.	.	.	.	4cc\
.	.	2f\	.	1cc
1G	1d	2g\	1r	.
.	.	2g\	.	2bni\
=18	=18	=18	=18	=18
1C	[0c	1e	1g	0cc
[1F	.	2.f\	2a/	.
.	.	.	[2a/	.
.	.	4f\	.	.
=19	=19	=19	=19	=19
2F\]	1c]	2f\	2a/]	1r
2F\	.	2f\	2a/	.
2F\	1r	2f\	[1a	[1cc
2F\	.	2c\	.	.
=20	=20	=20	=20	=20
1.F	1.c	2r	2a/]	2cc\]
.	.	1f	2a/	2cc\
.	.	.	[1a	2cc\
2F\	2c\	2f\	.	2cc\
=21	=21	=21	=21	=21
1F	2c\	1f	1a]	1.cc
.	2c\	.	.	.
1C	[1c	1e	1g	.
.	.	.	.	2cc\
=22	=22	=22	=22	=22
2r	2c\]	1e	2r	1cc
2.C/	2c\	.	2.g/	.
.	1c	2r	.	1g
4D\	.	.	4f/	.
4E\	.	2e\	4g/	.
4F\	.	.	4a/	.
=23	=23	=23	=23	=23
2G\	1G	2d\	2b-\	2r
2.C/	.	1.e	2cc\	2.g/
.	2r	.	[1g	.
4D\	.	.	.	4f/
4E\	[2G/	.	.	4g/
4F\	.	.	.	4a/
=24	=24	=24	=24	=24
1G	4G/]	2.d\	1g]	1b-
.	4A/	.	.	.
.	4B-\	.	.	.
.	4c\	4e\	.	.
2F\	4d\	4f\	1r	2a/
.	4A/	4c\	.	.
2E\	2c\	2e\	.	[2g/
=25	=25	=25	=25	=25
1D	4B-\	2f\	1r	4g/]
.	4A/	.	.	4f/
.	4G/	2B-\	.	1f
.	4F/	.	.	.
1C	1G	1c	1g	.
.	.	.	.	2e/
=26	=26	=26	=26	=26
[0F	1F	2.A/	1.a	0f
.	.	8G/L	.	.
.	.	8F/J	.	.
.	2r	[1c	.	.
.	[2A/	.	4g/	.
.	.	.	4f/	.
=27	=27	=27	=27	=27
0F]	2A/]	0c]	2.cc\	1r
.	4G/	.	.	.
.	4F/	.	4b-\	.
.	2.A/	.	4a/	1cc
.	.	.	4g/	.
.	.	.	[2f/	.
.	4B-\	.	.	.
=28	=28	=28	=28	=28
0r	1c	1r	2f/]	1g
.	.	.	2e/	.
.	1r	1f	2f/	1a
.	.	.	[2cc\	.
=29	=29	=29	=29	=29
0r	1c	1c	2cc\]	2g/
.	.	.	2g/	1cc
.	1G	1d	2r	.
.	.	.	[2g/	2b-\
=30	=30	=30	=30	=30
1F	1A	2c\	2g/]	0cc
.	.	1f	2f/	.
1C	2G/	.	1g	.
.	[2c\	2e\	.	.
=31	=31	=31	=31	=31
1D	2c\]	1f	2f/	1r
.	2B-\	.	2ff\	.
2C/	[1c	1r	2ee\	1cc
[2F\	.	.	4a/	.
.	.	.	4b-\	.
=32	=32	=32	=32	=32
2F\]	1c]	1r	4cc\	1g
.	.	.	4dd\	.
2E\	.	.	2ee\	.
1F	1r	1f	2cc\	1a
.	.	.	[2cc\	.
=33	=33	=33	=33	=33
0r	1c	1c	2cc\]	2g/
.	.	.	1g	1cc
.	1G	1d	.	.
.	.	.	[2g/	2b-\
=34	=34	=34	=34	=34
1F	1A	2c\	2g/]	0cc
.	.	1f	2f/	.
1C	2G/	.	1g	.
.	[2c\	2e\	.	.
=35	=35	=35	=35	=35
1D	2c\]	1f	1f	0r
.	2B-\	.	.	.
2C/	1c	2e\	1r	.
[2F\	.	2c\	.	.
=36	=36	=36	=36	=36
2F\]	1r	1c	2r	1r
2E\	.	.	2g/	.
1F	2r	2c\	1a	2r
.	2F/	[2f\	.	2cc\
=37	=37	=37	=37	=37
0r	1B-	2f\]	1f	1dd
.	.	1d	.	.
.	1G	.	1g	1b-
.	.	[2e\	.	.
=38	=38	=38	=38	=38
0r	1A	2e\]	2e/	1cc
.	.	2c\	1a	.
.	2F/	1f	.	2a/
.	[2B-\	.	2f/	[2dd\
=39	=39	=39	=39	=39
0r	2B-\]	2d\	1g	2dd\]
.	2G/	1e	.	2b-\
.	1A	.	2e/	1cc
.	.	2c\	[2a/	.
=40	=40	=40	=40	=40
0r	2F/	1f	2a/]	2a/
.	1B-	.	2f/	1dd
.	.	1d	1g	.
.	2G/	.	.	2b-\
=41	=41	=41	=41	=41
1r	2A/	1r	2e/	2cc\
.	2F/	.	1f	2a/
2r	1c	2r	.	1g
2C/	.	2g\	2e/	.
=42	=42	=42	=42	=42
1F	2r	1a	1f	2f/
.	2c\	.	.	2cc\
1D	1d	1f	2r	1ff
.	.	.	2a/	.
=43	=43	=43	=43	=43
1G	1B-	1g	1b-	1dd
2C/	1c	2e\	2g/	2ee\
[2F\	.	[2a\	2a/	2cc\
=44	=44	=44	=44	=44
2F\]	2A/	2a\]	2f/	1ff
2D\	1d	2f\	2a/	.
1G	.	1g	1b-	1dd
.	2B-\	.	.	.
=45	=45	=45	=45	=45
2C/	1c	2e\	2g/	2ee\
1F	.	1a	2a/	2cc\
.	2A/	.	2f/	2.ff\
2D\	2d\	2f\	2a/	.
.	.	.	.	4ee\
=46	=46	=46	=46	=46
2G\	2B-\	2g\	2b-\	2dd\
2C/	1c	2e\	2g/	2cc\
1G	.	1d	[1g	1dd
.	2Bni\	.	.	.
=47	=47	=47	=47	=47
0C	0c	4c\	1g]	1ee
.	.	4d\	.	.
.	.	4e\	.	.
.	.	4f\	.	.
.	.	2g\	1r	2r
.	.	2e\	.	[2cc\
=48	=48	=48	=48	=48
0r	1F	1a	1f	2cc\]
.	.	.	.	2dd\
.	1r	1r	2g/	1ee
.	.	.	[2a/	.
=49	=49	=49	=49	=49
0r	1r	1r	2a/]	2cc\
.	.	.	2f/	1ff
.	2r	2r	1g	.
.	[2c\	2g\	.	2ee\
=50	=50	=50	=50	=50
1F	2c\]	1a	1f	1ff
.	2d\	.	.	.
2G\	1e	2g\	1r	1r
[2A\	.	2e\	.	.
=51	=51	=51	=51	=51
2A\]	2c\	1a	0r	0r
2F\	1f	.	.	.
1G	.	1g	.	.
.	2e\	.	.	.
=52	=52	=52	=52	=52
1F	1f	1a	2r	2cc\
.	.	.	2f/	2dd\
1r	1r	1r	2g/	2.ee\
.	.	.	[2a/	.
.	.	.	.	4ee\
=53	=53	=53	=53	=53
0r	1r	1r	4a/]	2cc\
.	.	.	4a/	.
.	.	.	2f/	1ff
.	2r	2r	2g/	.
.	[2c\	2g\	2g/	2ee\
=54	=54	=54	=54	=54
1F	2c\]	1a	1f	1ff
.	2d\	.	.	.
2G\	2.e\	2g\	1r	1r
[2A\	.	2e\	.	.
.	4e\	.	.	.
=55	=55	=55	=55	=55
4A\]	2c\	1a	0r	0r
4A\	.	.	.	.
2F\	1f	.	.	.
2G\	.	2g\	.	.
2G\	2e\	2g\	.	.
=56	=56	=56	=56	=56
1.F	1f	[0c	1.f	1r
.	1r	.	.	[1cc
4E\	.	.	2f/	.
4D\	.	.	.	.
=57	=57	=57	=57	=57
2C/	0r	0c]	1e	2cc\]
2c\	.	.	.	2cc\
2F\	.	.	1f	2cc\
2A\	.	.	.	2cc\
=58	=58	=58	=58	=58
1G	0r	1d	1g	1b-
1r	.	1r	2e/	2cc\
.	.	.	[2f/	[2dd\
=59	=59	=59	=59	=59
1.B-	1r	0r	4f/]	4dd\]
.	.	.	4e/	4cc\
.	.	.	4d/	4b-\
.	.	.	4c/	4a/
.	[1f	.	1d	1b-
2B-\	.	.	.	.
=60	=60	=60	=60	=60
1A	2f\]	2r	2c/	1cc
.	2f\	2f\	2cc\	.
1B-	2f\	2d\	1b-	1r
.	2f\	2d\	.	.
=61	=61	=61	=61	=61
1c	1e	2e\	1g	0r
.	.	1c	.	.
2A\	2f\	.	1r	.
[2B-\	[2g\	[2d\	.	.
=62	=62	=62	=62	=62
4B-\]	4g\]	4d\]	1.b-	0r
4A\	4f\	4c\	.	.
4G\	1f	4B-\	.	.
4F\	.	4A/	.	.
1G	.	1B-	.	.
.	2e\	.	2b-\	.
=63	=63	=63	=63	=63
1F	2f\	1c	1a	2r
.	2f\	.	.	2ff\
1r	1g	1r	1b-	2dd\
.	.	.	.	2dd\
=64	=64	=64	=64	=64
0r	2e\	0r	1cc	2ee\
.	2.f\	.	.	1cc
.	.	.	2a/	.
.	4e\	.	.	.
.	4d\	.	[2b-\	[2dd\
.	4c\	.	.	.
=65	=65	=65	=65	=65
0r	1d	0r	4b-\]	4dd\]
.	.	.	4a/	4cc\
.	.	.	4g/	1ff
.	.	.	4f/	.
.	1c	.	1g	.
.	.	.	.	2ee\
=66	=66	=66	=66	=66
2r	2r	2r	1f	0ff
1B-	1d	1f	.	.
.	.	.	1r	.
2A\	2c\	2f\	.	.
=67	=67	=67	=67	=67
2B-\	2d\	2f\	1r	1r
2G\	2e\	2g\	.	.
1F	1f	2a\	2r	2r
.	.	[2f\	[2a/	[2cc\
=68	=68	=68	=68	=68
0r	0r	2f\]	2a/]	2cc\]
.	.	2e\	2g/	2cc\
.	.	2f\	2a/	2cc\
.	.	2d\	2b-\	2dd\
=69	=69	=69	=69	=69
2r	1r	2c\	1cc	1ee
2c\	.	2e\	.	.
2c\	2r	2e\	1r	1r
2B-\	2g\	2d\	.	.
=70	=70	=70	=70	=70
2c\	2g\	2e\	2r	1r
2A\	2f\	2c\	2cc\	.
2G\	2g\	2d\	2b-\	2r
2A\	2e\	2c\	2a/	2cc\
=71	=71	=71	=71	=71
2F\	1d	2A/	2a/	2cc\
2G\	.	2B-\	4g/	2b-\
.	.	.	4f/	.
2C/	1c	2G/	2e/	2cc\
2F\	.	2F/	2f/	2a/
=72	=72	=72	=72	=72
2F\	2r	1G	2d/	1g
2E\	2c\	.	2e/	.
2F\	2c\	2A/	2c/	1f
2D\	2B-\	2F/	2d/	.
=73	=73	=73	=73	=73
2C/	2c\	2r	2e/	2r
2D\	2A/	2f\	2f/	2a/
2BB-/	1G	2f\	2r	2b-\
2C/	.	2e\	2cc\	2g/
=74	=74	=74	=74	=74
2F\	2F/	2f\	2cc\	2a/
2G\	2B-\	2d\	2b-\	2g/
2E\	2G/	2c\	2cc\	2g/
2F\	2A/	[2f\	2a/	2f/
=75	=75	=75	=75	=75
2BB-/	2d\	2f\]	1g	1g
2C/	2c\	2e\	.	.
2r	[1F	2d\	[1f	2r
2F\	.	2c\	.	2a/
=76	=76	=76	=76	=76
2D\	1F]	2r	1f]	2a/
2D\	.	2f\	.	2a/
2G\	2r	2d\	1r	2.g/
2G\	2B-\	2d\	.	.
.	.	.	.	4a/
=77	=77	=77	=77	=77
1G	2G/	2g\	2r	4b-\
.	.	.	.	4cc\
.	2G/	2g\	2b-\	4dd\
.	.	.	.	4b-\
1C	2c\	2r	2g/	2.cc\
.	2c\	2g\	2g/	.
.	.	.	.	4b-\
=78	=78	=78	=78	=78
2r	1c	2e\	2cc\	2a/
2c\	.	2e\	2cc\	2g/
2A\	1F	2a\	1cc	[1f
2A\	.	2a\	.	.
=79	=79	=79	=79	=79
2d\	2r	2.a\	2f/	1f]
2d\	2f\	.	2a/	.
.	.	4g\	.	.
1d	2d\	4f\	2a/	2r
.	.	4e\	.	.
.	2d\	2f\	2a/	2ff\
=80	=80	=80	=80	=80
2G\	2g\	2g\	2b-\	2dd\
2B-\	2g\	2d\	2b-\	2dd\
2G\	1g	2d\	1b-	2gg\
2G\	.	2d\	.	2gg\
=81	=81	=81	=81	=81
2c\	2.c\	2e\	1cc	1gg
2c\	.	2e\	.	.
.	4d\	.	.	.
1c	4e\	1g	1r	1cc
.	4f\	.	.	.
.	4g\	.	.	.
.	4e\	.	.	.
=82	=82	=82	=82	=82
1F	1f	1a	2r	2r
.	.	.	2f/	2cc\
1r	1r	1r	2.b-\	2.dd\
.	.	.	4b-\	4dd\
=83	=83	=83	=83	=83
0r	0r	0r	2a/	2cc\
.	.	.	2f/	2ff\
.	.	.	2g/	2dd\
.	.	.	2g/	2ee\
=84	=84	=84	=84	=84
2r	2r	2r	1f	0ff
2F\	2c\	2a\	.	.
2.B-\	2.d\	2.f\	1r	.
4B-\	4d\	4d\	.	.
=85	=85	=85	=85	=85
2A\	2c\	2e\	2r	0r
2F\	2f\	2a\	2f/	.
2G\	2d\	2g\	2.b-\	.
2G\	2e\	2g\	.	.
.	.	.	4b-\	.
=86	=86	=86	=86	=86
1F	1f	1c	2a/	2r
.	.	.	2f/	2ff\
2r	1r	2r	2g/	2dd\
2C/	.	2c\	2g/	2ee\
=87	=87	=87	=87	=87
2.F\	1r	2A/	1f	1ff
.	.	2A/	.	.
4F\	.	.	.	.
2E\	2r	2G/	1r	1r
2C/	2c\	2c\	.	.
=88	=88	=88	=88	=88
2D\	2.f\	2A/	1r	1r
2D\	.	2B-\	.	.
.	4f\	.	.	.
1C	2e\	1c	2r	2r
.	2c\	.	2cc\	2ee\
=89	=89	=89	=89	=89
0r	2d\	0r	2a/	2ff\
.	2d\	.	2b-\	2dd\
.	[1c	.	1cc	[1ee
=90	=90	=90	=90	=90
2r	1c]	1e	2r	1ee]
2C/	.	.	2g/	.
2.F\	1A	[1f	2.a/	1cc
4F\	.	.	4a/	.
=91	=91	=91	=91	=91
1BB-	1.B-	2f\]	2f/	1.dd
.	.	2f\	1ff	.
[1BB-	.	1f	.	.
.	2B-\	.	2ff\	2dd\
=92	=92	=92	=92	=92
2BB-/]	1B-	1.f	1ff	1dd
2BB-/	.	.	.	.
1BB-	[1B-	.	2.ff\	[1dd
.	.	2f\	.	.
.	.	.	4ee\	.
=93	=93	=93	=93	=93
2.B-\	1B-]	1f	4dd\	2dd\]
.	.	.	4cc\	.
.	.	.	2.b-\	2dd\
4A\	.	.	.	.
4G\	1B-	[1g	.	1dd
4F\	.	.	4a/	.
2G\	.	.	4g/	.
.	.	.	4f/	.
=94	=94	=94	=94	=94
1C	0c	1g]	2.e/	0ee
.	.	.	4f/	.
2r	.	1e	2g/	.
2c\	.	.	2g/	.
=95	=95	=95	=95	=95
1c	1A	1e	2r	1cc
.	.	.	2a/	.
1F	1A	1f	1a	1cc
=96	=96	=96	=96	=96
2.B-\	1B-	1f	2f/	1dd
.	.	.	2.b-\	.
4A\	.	.	.	.
4G\	1B-	[1g	.	1dd
4F\	.	.	4a/	.
2G\	.	.	4g/	.
.	.	.	4f/	.
=97	=97	=97	=97	=97
0C	0c	1g]	2.e/	0ee
.	.	.	4f/	.
.	.	[1e	1g	.
=98	=98	=98	=98	=98
1r	0A	1e]	1a	0cc
1F	.	1r	2r	.
.	.	.	2f/	.
=99	=99	=99	=99	=99
1C	1r	1e	1g	1r
1F	1A	1f	1a	1cc
=100	=100	=100	=100	=100
1.BB-	1B-	1f	2f/	1dd
.	.	.	1ff	.
.	1B-	[1f	.	1dd
2BB-/	.	.	2ff\	.
=101	=101	=101	=101	=101
1BB-	1.B-	2f\]	2ff\	1.dd
.	.	2f\	2.ff\	.
2.B-\	.	1f	.	.
.	.	.	4ee\	.
.	2B-\	.	4dd\	2dd\
4A\	.	.	4cc\	.
=102	=102	=102	=102	=102
4G\	1B-	0g	4b-\	1dd
4F\	.	.	4a/	.
2G\	.	.	4g/	.
.	.	.	4f/	.
[1C	[1c	.	2.e/	[1ee
.	.	.	4f/	.
=103	=103	=103	=103	=103
1C]	1c]	0e	2g/	1ee]
.	.	.	2e/	.
2r	[1A	.	2r	[1cc
2c\	.	.	2ee\	.
=104	=104	=104	=104	=104
4c\	1A]	1e	4ee\	1cc]
4B-\	.	.	4dd\	.
4A\	.	.	4cc\	.
4G\	.	.	4b-\	.
1F	1A	1f	2a/	1cc
.	.	.	2a/	.
=105	=105	=105	=105	=105
2BB-/	1B-	1f	2d/	1dd
4B-\	.	.	2dd\	.
4A\	.	.	.	.
4G\	1B-	[1gl	2b-\	1dd
4F\	.	.	.	.
2G\	.	.	2b-\	.
=106	=106	=106	=106	=106
[0Cl	[0cl	0g_	2g/	[0eel
.	.	.	2g/	.
.	.	.	2e/	.
.	.	.	2c/	.
=107	=107	=107	=107	=107
0C]	0c]	0g]	0ccl	0ee]
!!LO:LB:i:g=z
=108||	=108||	=108||	=108||	=108||
*>B	*>B	*>B	*>B	*>B
!!section: Secunda pars: A custodia
!!!OMD: Secunda pars: A custodia
*k[b-]	*k[b-]	*k[b-]	*k[b-]	*k[b-]
*M2/1	*M2/1	*M2/1	*M2/1	*M2/1
*met(C|)	*met(C|)	*met(C|)	*met(C|)	*met(C|)
1r	1.g	0r	0r	0r
[1c	.	.	.	.
.	2f\	.	.	.
=109	=109	=109	=109	=109
2c\]	2e\	0r	0r	0r
2B-\	2d\	.	.	.
2A\	1c	.	.	.
2G\	.	.	.	.
=110	=110	=110	=110	=110
1F	1.f	0r	0r	0r
[1B-	.	.	.	.
.	2e\	.	.	.
=111	=111	=111	=111	=111
2B-\]	2d\	1r	0r	0r
2A\	2c\	.	.	.
2G\	2B-\	2r	.	.
2F\	2A/	2f\	.	.
=112	=112	=112	=112	=112
2E\	2G/	2g\	0r	0r
2F\	1c	1a	.	.
1D	.	.	.	.
.	2Bni\	4g\	.	.
.	.	4f\	.	.
=113	=113	=113	=113	=113
[0C	[0c	0e	1r	1.gg
.	.	.	[1cc	.
.	.	.	.	2ff\
=114	=114	=114	=114	=114
0C]	0c]	0e	2cc\]	2ee\
.	.	.	2b-\	2dd\
.	.	.	2a/	1cc
.	.	.	2g/	.
=115	=115	=115	=115	=115
0r	0r	0r	1f	1.ff
.	.	.	[1b-	.
.	.	.	.	2ee\
=116	=116	=116	=116	=116
0r	0r	1r	2b-\]	2dd\
.	.	.	2a/	2cc\
.	.	2r	2g/	2b-\
.	.	2f\	2f/	2a/
=117	=117	=117	=117	=117
2r	0r	2g\	2e/	2g/
2F\	.	2a\	2f/	1cc
2F\	.	2a\	1d	.
2G\	.	4g\	.	2bni\
.	.	4f\	.	.
=118	=118	=118	=118	=118
1A	2r	1e	1c	1cc
.	2c\	.	.	.
1F	2c\	1a	1r	1r
.	2d\	.	.	.
=119	=119	=119	=119	=119
2r	1e	1g	0r	0r
1c	.	.	.	.
.	1c	2e\	.	.
2A\	.	[2f\	.	.
=120	=120	=120	=120	=120
1B-	2r	2f\]	1r	0r
.	1g	2d\	.	.
2G\	.	1e	2r	.
[2A\	2e\	.	[2cc\	.
=121	=121	=121	=121	=121
2A\]	1f	2c\	2cc\]	0r
2F\	.	1d	2a/	.
1G	2d\	.	1b-	.
.	[2e\	2B-\	.	.
=122	=122	=122	=122	=122
2E\	2e\]	1c	2g/	0r
1F	2c\	.	1a	.
.	1d	2A/	.	.
2D\	.	2B-\	2f/	.
=123	=123	=123	=123	=123
2E\	2c\	2G/	2.g/	2.gg\
2C/	1c	2c\	.	.
.	.	.	4a/	4ee\
1D	.	2A/	1f	2.ff\
.	2Bni\	2F/	.	.
.	.	.	.	4dd\
=124	=124	=124	=124	=124
1C	1c	2G/	2r	2.ee\
.	.	1c	2cc\	.
.	.	.	.	4cc\
1r	2r	.	2a/	1dd
.	2g\	2B-\	2b-\	.
=125	=125	=125	=125	=125
1r	2e\	2c\	2g/	2cc\
.	2f\	2A/	2a/	1cc
1G	1d	2.B-\	1g	.
.	.	.	.	2bni\
.	.	4G/	.	.
=126	=126	=126	=126	=126
1C	0c	1G	2r	[0cc
.	.	.	2.e/	.
2E\	.	1g	.	.
.	.	.	4f/	.
2E\	.	.	2g/	.
=127	=127	=127	=127	=127
2F\	1r	1c	1a	0cc]
2F\	.	.	.	.
1C	1c	2e\	1g	.
.	.	2e\	.	.
=128	=128	=128	=128	=128
0r	1F	2f\	2r	1r
.	.	2f\	2.a/	.
.	2A/	2c\	.	1cc
.	.	.	4b-\	.
.	2A/	2e\	2cc\	.
=129	=129	=129	=129	=129
1r	2B-\	2d\	2dd\	1f
.	2B-\	2d\	2b-\	.
1F	2F/	2c\	2cc\	2a/
.	2c\	2c\	2f/	2a/
=130	=130	=130	=130	=130
1BB-	2d\	1B-	2r	2b-\
.	2B-\	.	2.d/	2b-\
2D\	2A/	1r	.	1f
.	.	.	4e/	.
2D\	2A/	.	2f/	.
=131	=131	=131	=131	=131
2E-\	1G	2r	2g/	2r
2E-i\	.	2c\	2e-/	2g/
1BB-	1r	2d\	2d/	2f/
.	.	2B-\	2dd\	2d/
=132	=132	=132	=132	=132
1r	0r	2A/	2cc\	2e/
.	.	2A/	2a/	2f/
2r	.	2G/	1b-	2g/
2B-\	.	2f\	.	2dd\
=133	=133	=133	=133	=133
2c\	1r	2e\	2g/	2cc\
2A\	.	2c\	2a/	2cc\
2G\	2r	2d\	2r	2b-\
2G\	2B-\	2e\	2b-\	2g/
=134	=134	=134	=134	=134
1F	2c\	1f	2a/	1a
.	2A/	.	2f/	.
1r	2G/	2r	2g/	2r
.	2G/	2e\	2g/	2b-\
=135	=135	=135	=135	=135
1r	1F	2f\	1a	2a/
.	.	2d\	.	2f/
2r	1r	2c\	2r	2g/
2F\	.	2c\	2a/	2f/
=136	=136	=136	=136	=136
2G\	1r	2B-\	2b-\	2d/
2E\	.	2c\	2g/	2e/
2D\	2r	1F	2f/	1f
2D\	2B-\	.	2d/	.
=137	=137	=137	=137	=137
0C	2c\	2G/	2e/	1r
.	2A/	1c	1f	.
.	2G/	.	.	1g
.	2G/	2c\	2e/	.
=138	=138	=138	=138	=138
0r	0F	1c	0f	1a
.	.	2r	.	2a/
.	.	2f\	.	[2a/
=139	=139	=139	=139	=139
0r	0r	1f	1r	2a/]
.	.	.	.	4g/
.	.	.	.	4f/
.	.	2e\	2r	2g/
.	.	[2f\	2cc\	[2a/
=140	=140	=140	=140	=140
0r	1r	4f\]	2cc\	4a/]
.	.	4e\	.	4g/
.	.	4d\	2f/	1cc
.	.	4c\	.	.
.	1G	1d	1g	.
.	.	.	.	2bni\
=141	=141	=141	=141	=141
1r	1A	[0c	1e	[0cc
2r	2A/	.	1a	.
2F\	[2A/	.	.	.
=142	=142	=142	=142	=142
1F	2A/]	0c]	1.f	0cc]
.	4G/	.	.	.
.	4F/	.	.	.
2E\	2G/	.	.	.
[2F\	[2A/	.	2f/	.
=143	=143	=143	=143	=143
4F\]	4A/]	1r	2f/	0r
4E\	4G/	.	.	.
4D\	1c	.	2f/	.
4C/	.	.	.	.
1D	.	1d	2.f/	.
.	2Bni\	.	.	.
.	.	.	4g/	.
=144	=144	=144	=144	=144
[0C	1c	1e	2a/	0r
.	.	.	2g/	.
.	2r	2e\	[1g	.
.	2c\	[2e\	.	.
=145	=145	=145	=145	=145
1C]	1c	2e\]	0g]	0r
.	.	4d\	.	.
.	.	4c\	.	.
1r	2B-\	2d\	.	.
.	[2c\	[2e\	.	.
=146	=146	=146	=146	=146
0r	4c\]	4e\]	0r	1r
.	4B-\	4d\	.	.
.	4A/	1g	.	.
.	4G/	.	.	.
.	1A	.	.	2r
.	.	2f#i\	.	[2cc\
=147	=147	=147	=147	=147
0r	1G	1g	0r	2cc\]
.	.	.	.	2b-\
.	1r	2r	.	1a
.	.	[2f\	.	.
=148	=148	=148	=148	=148
0r	0r	2f\]	2r	1g
.	.	2e\	1cc	.
.	.	1d	.	2r
.	.	.	2b-\	2d/
=149	=149	=149	=149	=149
2r	1r	1c	1a	2e/
1F	.	.	.	2f/
.	2r	2r	1g	2.g/
2E\	[2c\	2G/	.	.
.	.	.	.	4e/
=150	=150	=150	=150	=150
1D	2c\]	2A/	2r	1f
.	2B-\	2B-\	2d/	.
1C	1A	2c\	2.e/	1r
.	.	2c\	.	.
.	.	.	4f/	.
=151	=151	=151	=151	=151
0r	1G	2d\	1g	2r
.	.	2e\	.	2g/
.	2r	2f\	2r	2a/
.	2G/	2d\	2g/	2b-\
=152	=152	=152	=152	=152
0r	2.A/	2c\	2e/	0cc
.	.	2f\	2a/	.
.	4B-\	.	.	.
.	1c	2e\	2g/	.
.	.	2e\	2g/	.
=153	=153	=153	=153	=153
0r	2r	2f\	2a/	2r
.	2G/	2d\	2b-\	2g/
.	2.A/	1c	[1cc	2e/
.	.	.	.	2a/
.	4B-\	.	.	.
=154	=154	=154	=154	=154
2r	2c\	2r	1cc]	2g/
2C/	2c\	2e\	.	2e/
2D\	2B-\	2d\	1r	2f/
2E\	2B-\	2G/	.	2g/
=155	=155	=155	=155	=155
[0F	[0A	1c	0r	[0a
.	.	2r	.	.
.	.	2c\	.	.
=156	=156	=156	=156	=156
0F]	0A]	2d\	2r	0a]
.	.	2c\	2cc\	.
.	.	2r	2dd\	.
.	.	2f\	2cc\	.
=157	=157	=157	=157	=157
0r	0r	2g\	2ee\	0r
.	.	2f\	2dd\	.
.	.	2a\	2cc\	.
.	.	2g\	2ee\	.
=158	=158	=158	=158	=158
0r	1r	2f\	4dd\	2r
.	.	.	4cc\	.
.	.	2a\	1ff	2cc\
.	2r	1g	.	2dd\
.	2c\	.	2ee\	2cc\
=159	=159	=159	=159	=159
2r	2d\	1f	1ff	2a/
2F\	2c\	.	.	2a/
2G\	2e\	1r	1r	2g/
2F\	2d\	.	.	[2a/
=160	=160	=160	=160	=160
2A\	2c\	0r	1r	4a/]
.	.	.	.	4f/
2G\	2e\	.	.	2g/
2F\	4d\	.	1f	1a
.	4c\	.	.	.
2A\	[2f\	.	.	.
=161	=161	=161	=161	=161
1G	2f\]	1B-	2g/	0r
.	2e\	.	2g/	.
1F	1f	2c\	1a	.
.	.	2c\	.	.
=162	=162	=162	=162	=162
1B-	1r	2d\	0r	1f
.	.	1f	.	.
2G\	1B-	.	.	2g/
2G\	.	2e\	.	2g/
=163	=163	=163	=163	=163
2F\	2c\	1f	2r	1a
2F\	2c\	.	2f/	.
2B-\	2d\	2r	2f/	1r
2B-\	[2f\	2B-\	2f/	.
=164	=164	=164	=164	=164
2G\	2f\]	2B-\	2g/	1r
2G\	2e\	2B-\	2g/	.
2F\	1f	2c\	2a/	2r
2F\	.	2c\	2cc\	2f/
=165	=165	=165	=165	=165
2B-\	2r	2d\	2b-\	2f/
2B-\	2B-\	1f	2b-\	2f/
2G\	2B-\	.	1b-	2g/
2G\	2B-\	2e\	.	2g/
=166	=166	=166	=166	=166
2F\	2c\	2f\	2a/	2a/
2A\	2c\	2F/	2f/	1cc
1G	1d	2.B-\	1g	.
.	.	.	.	2b-\
.	.	4G/	.	.
=167	=167	=167	=167	=167
2r	2c\	2A/	1e	2.cc\
2C/	2.c\	2G/	.	.
.	.	.	.	4b-\
2F\	.	2A/	2r	4a/
.	4B-\	.	.	4g/
2F\	4A/	2c\	2f/	[2a/
.	4G/	.	.	.
=168	=168	=168	=168	=168
2D\	1F	2d\	2f/	4a/]
.	.	.	.	4g/
2D\	.	2A/	2f/	1f
1C	2r	2c\	2g/	.
.	2c\	2G/	2g/	2e/
=169	=169	=169	=169	=169
2F\	2c\	2r	2a/	1f
2A\	2c\	2F/	1cc	.
1G	2d\	2.B-\	.	1g
.	2d\	.	2b-\	.
.	.	4G/	.	.
=170	=170	=170	=170	=170
2r	2c\	2A/	2.cc\	1e
2C/	2.c\	2G/	.	.
.	.	.	4b-\	.
2F\	.	2A/	4a/	1f
.	4B-\	.	4g/	.
2F\	4A/	2c\	[2a/	.
.	4G/	.	.	.
=171	=171	=171	=171	=171
2D\	1F	2d\	4a/]	1r
.	.	.	4g/	.
2D\	.	2A/	1f	.
1C	1G	[1c	.	1g
.	.	.	2e/	.
=172	=172	=172	=172	=172
2r	[0Fl	1c]	[0fl	1a
2F\	.	.	.	.
4BB-/	.	1d	.	1b-
4C/	.	.	.	.
4D\	.	.	.	.
4E\	.	.	.	.
=173	=173	=173	=173	=173
0Fl	0F]	0cl	0f]	0al
==	==	==	==	==
*-	*-	*-	*-	*-
!!!RDF**kern: l=long note in original notation
!!!RDF**kern: i=editorial accidental
!!!ENC:	Will Watson 07/05/2011
!!!END:	2011/07/05/ 
!!!EED:	Jesse Rodin
!!!EEV:	2011/10/24/
!!attribution-level@Jos: 6 (very doubtful)
!!!ONB:	Translated from MusicXML and edited on 2011/10/24/ by Craig Sapp
!!muse2ps: C^@{COA}?\n@{SCT}^u^(2) @{OTL2}^i2I150v90,90,90,90,130Q16
